src/img/sprite.svg

<svg xmlns="http://www.w3.org/2000/svg" xmlns:xlink="http://www.w3.org/1999/xlink"><symbol id="discord" viewBox="0 0 100 100"><path fill="currentColor" d="M85.22 24.958c-11.459-8.575-22.438-8.334-22.438-8.334l-1.122 1.282c13.623 4.087 19.954 10.097 19.954 10.097-19.491-10.731-44.317-10.654-64.59 0 0 0 6.571-6.331 20.996-10.418l-.801-.962s-10.899-.24-22.438 8.334c0 0-11.54 20.755-11.54 46.319 0 0 6.732 11.54 24.442 12.101 0 0 2.965-3.526 5.369-6.571-10.177-3.045-14.024-9.376-14.024-9.376 6.394 4.001 12.859 6.505 20.916 8.094 13.108 2.698 29.413-.076 41.591-8.094 0 0-4.007 6.491-14.505 9.456a625.034 625.034 0 0 0 5.289 6.411c17.71-.561 24.441-12.101 24.441-12.02-.001-25.564-11.54-46.319-11.54-46.319zM35.055 63.824c-4.488 0-8.174-3.927-8.174-8.815.328-11.707 16.102-11.671 16.348 0 0 4.888-3.607 8.815-8.174 8.815zm29.249 0c-4.488 0-8.174-3.927-8.174-8.815.36-11.684 15.937-11.689 16.348 0 0 4.888-3.606 8.815-8.174 8.815z"/></symbol><symbol id="github" viewBox="0 0 438.549 438.549"><path fill="currentColor" d="M409.132 114.573c-19.608-33.596-46.205-60.194-79.798-79.8-33.598-19.607-70.277-29.408-110.063-29.408-39.781 0-76.472 9.804-110.063 29.408-33.596 19.605-60.192 46.204-79.8 79.8C9.803 148.168 0 184.854 0 224.63c0 47.78 13.94 90.745 41.827 128.906 27.884 38.164 63.906 64.572 108.063 79.227 5.14.954 8.945.283 11.419-1.996 2.475-2.282 3.711-5.14 3.711-8.562 0-.571-.049-5.708-.144-15.417a2549.81 2549.81 0 0 1-.144-25.406l-6.567 1.136c-4.187.767-9.469 1.092-15.846 1-6.374-.089-12.991-.757-19.842-1.999-6.854-1.231-13.229-4.086-19.13-8.559-5.898-4.473-10.085-10.328-12.56-17.556l-2.855-6.57c-1.903-4.374-4.899-9.233-8.992-14.559-4.093-5.331-8.232-8.945-12.419-10.848l-1.999-1.431c-1.332-.951-2.568-2.098-3.711-3.429-1.142-1.331-1.997-2.663-2.568-3.997-.572-1.335-.098-2.43 1.427-3.289 1.525-.859 4.281-1.276 8.28-1.276l5.708.853c3.807.763 8.516 3.042 14.133 6.851 5.614 3.806 10.229 8.754 13.846 14.842 4.38 7.806 9.657 13.754 15.846 17.847 6.184 4.093 12.419 6.136 18.699 6.136 6.28 0 11.704-.476 16.274-1.423 4.565-.952 8.848-2.383 12.847-4.285 1.713-12.758 6.377-22.559 13.988-29.41-10.848-1.14-20.601-2.857-29.264-5.14-8.658-2.286-17.605-5.996-26.835-11.14-9.235-5.137-16.896-11.516-22.985-19.126-6.09-7.614-11.088-17.61-14.987-29.979-3.901-12.374-5.852-26.648-5.852-42.826 0-23.035 7.52-42.637 22.557-58.817-7.044-17.318-6.379-36.732 1.997-58.24 5.52-1.715 13.706-.428 24.554 3.853 10.85 4.283 18.794 7.952 23.84 10.994 5.046 3.041 9.089 5.618 12.135 7.708 17.705-4.947 35.976-7.421 54.818-7.421s37.117 2.474 54.823 7.421l10.849-6.849c7.419-4.57 16.18-8.758 26.262-12.565 10.088-3.805 17.802-4.853 23.134-3.138 8.562 21.509 9.325 40.922 2.279 58.24 15.036 16.18 22.559 35.787 22.559 58.817 0 16.178-1.958 30.497-5.853 42.966-3.9 12.471-8.941 22.457-15.125 29.979-6.191 7.521-13.901 13.85-23.131 18.986-9.232 5.14-18.182 8.85-26.84 11.136-8.662 2.286-18.415 4.004-29.263 5.146 9.894 8.562 14.842 22.077 14.842 40.539v60.237c0 3.422 1.19 6.279 3.572 8.562 2.379 2.279 6.136 2.95 11.276 1.995 44.163-14.653 80.185-41.062 108.068-79.226 27.88-38.161 41.825-81.126 41.825-128.906-.01-39.771-9.818-76.454-29.414-110.049z"/></symbol><symbol id="telegram" viewBox="0 0 24 24"><g fill="currentColor"><path d="m22.44 4.622-3.17 14.944c-.239 1.055-.862 1.317-1.748.82l-4.828-3.558-2.33 2.242c-.258.258-.473.473-.97.473l.347-4.917 8.948-8.086c.39-.346-.084-.54-.604-.192L7.022 13.314 2.26 11.823c-1.036-.323-1.055-1.036.216-1.533l18.628-7.177c.862-.323 1.617.192 1.335 1.51Z"/></g></symbol><symbol id="vk" viewBox="0 0 24 24"><g fill="currentColor"><path d="M23.45 5.948c.166-.546 0-.948-.795-.948H20.03c-.668 0-.976.347-1.143.73 0 0-1.335 3.196-3.226 5.272-.612.602-.89.793-1.224.793-.167 0-.418-.191-.418-.738V5.948c0-.656-.184-.948-.74-.948H9.151c-.417 0-.668.304-.668.593 0 .621.946.765 1.043 2.513v3.798c0 .833-.153.984-.487.984-.89 0-3.055-3.211-4.34-6.885C4.45 5.288 4.198 5 3.527 5H.9c-.75 0-.9.347-.9.73 0 .682.89 4.07 4.145 8.551C6.315 17.341 9.37 19 12.153 19c1.669 0 1.875-.368 1.875-1.003v-2.313c0-.737.158-.884.687-.884.39 0 1.057.192 2.615 1.667C19.11 18.216 19.403 19 20.405 19h2.625c.75 0 1.126-.368.91-1.096-.238-.724-1.088-1.775-2.215-3.022-.612-.71-1.53-1.475-1.809-1.858-.389-.491-.278-.71 0-1.147 0 0 3.2-4.426 3.533-5.929h.001Z"/></g></symbol></svg>

<svg xmlns="http://www.w3.org/2000/svg">
<symbol fill="currentColor" id="github" width="30" height="30" viewBox="0 0 438.549 438.549">
<path d="M409.132,114.573c-19.608-33.596-46.205-60.194-79.798-79.8C295.736,15.166,259.057,5.365,219.271,5.365
  c-39.781,0-76.472,9.804-110.063,29.408c-33.596,19.605-60.192,46.204-79.8,79.8C9.803,148.168,0,184.854,0,224.63
  c0,47.78,13.94,90.745,41.827,128.906c27.884,38.164,63.906,64.572,108.063,79.227c5.14,0.954,8.945,0.283,11.419-1.996
  c2.475-2.282,3.711-5.14,3.711-8.562c0-0.571-0.049-5.708-0.144-15.417c-0.098-9.709-0.144-18.179-0.144-25.406l-6.567,1.136
  c-4.187,0.767-9.469,1.092-15.846,1c-6.374-0.089-12.991-0.757-19.842-1.999c-6.854-1.231-13.229-4.086-19.13-8.559
  c-5.898-4.473-10.085-10.328-12.56-17.556l-2.855-6.57c-1.903-4.374-4.899-9.233-8.992-14.559
  c-4.093-5.331-8.232-8.945-12.419-10.848l-1.999-1.431c-1.332-0.951-2.568-2.098-3.711-3.429c-1.142-1.331-1.997-2.663-2.568-3.997
  c-0.572-1.335-0.098-2.43,1.427-3.289c1.525-0.859,4.281-1.276,8.28-1.276l5.708,0.853c3.807,0.763,8.516,3.042,14.133,6.851
  c5.614,3.806,10.229,8.754,13.846,14.842c4.38,7.806,9.657,13.754,15.846,17.847c6.184,4.093,12.419,6.136,18.699,6.136
  c6.28,0,11.704-0.476,16.274-1.423c4.565-0.952,8.848-2.383,12.847-4.285c1.713-12.758,6.377-22.559,13.988-29.41
  c-10.848-1.14-20.601-2.857-29.264-5.14c-8.658-2.286-17.605-5.996-26.835-11.14c-9.235-5.137-16.896-11.516-22.985-19.126
  c-6.09-7.614-11.088-17.61-14.987-29.979c-3.901-12.374-5.852-26.648-5.852-42.826c0-23.035,7.52-42.637,22.557-58.817
  c-7.044-17.318-6.379-36.732,1.997-58.24c5.52-1.715,13.706-0.428,24.554,3.853c10.85,4.283,18.794,7.952,23.84,10.994
  c5.046,3.041,9.089,5.618,12.135,7.708c17.705-4.947,35.976-7.421,54.818-7.421s37.117,2.474,54.823,7.421l10.849-6.849
  c7.419-4.57,16.18-8.758,26.262-12.565c10.088-3.805,17.802-4.853,23.134-3.138c8.562,21.509,9.325,40.922,2.279,58.24
  c15.036,16.18,22.559,35.787,22.559,58.817c0,16.178-1.958,30.497-5.853,42.966c-3.9,12.471-8.941,22.457-15.125,29.979
  c-6.191,7.521-13.901,13.85-23.131,18.986c-9.232,5.14-18.182,8.85-26.84,11.136c-8.662,2.286-18.415,4.004-29.263,5.146
  c9.894,8.562,14.842,22.077,14.842,40.539v60.237c0,3.422,1.19,6.279,3.572,8.562c2.379,2.279,6.136,2.95,11.276,1.995
  c44.163-14.653,80.185-41.062,108.068-79.226c27.88-38.161,41.825-81.126,41.825-128.906
  C438.536,184.851,428.728,148.168,409.132,114.573z"/>
  </symbol>

    <symbol id="discord" viewBox="0 0 100 100" fill="currentColor"  width="33" height="33">
<path d="M85.22,24.958c-11.459-8.575-22.438-8.334-22.438-8.334l-1.122,1.282     c13.623,4.087,19.954,10.097,19.954,10.097c-19.491-10.731-44.317-10.654-64.59,0c0,0,6.571-6.331,20.996-10.418l-0.801-0.962     c0,0-10.899-0.24-22.438,8.334c0,0-11.54,20.755-11.54,46.319c0,0,6.732,11.54,24.442,12.101c0,0,2.965-3.526,5.369-6.571     c-10.177-3.045-14.024-9.376-14.024-9.376c6.394,4.001,12.859,6.505,20.916,8.094c13.108,2.698,29.413-0.076,41.591-8.094     c0,0-4.007,6.491-14.505,9.456c2.404,2.965,5.289,6.411,5.289,6.411c17.71-0.561,24.441-12.101,24.441-12.02     C96.759,45.713,85.22,24.958,85.22,24.958z M35.055,63.824c-4.488,0-8.174-3.927-8.174-8.815     c0.328-11.707,16.102-11.671,16.348,0C43.229,59.897,39.622,63.824,35.055,63.824z M64.304,63.824     c-4.488,0-8.174-3.927-8.174-8.815c0.36-11.684,15.937-11.689,16.348,0C72.478,59.897,68.872,63.824,64.304,63.824z"/>
</symbol>

<symbol id="telegram" width="30" height="30" viewBox="0 0 24 24" fill="currentColor">
<path d="M22.4392 4.62225L19.2705 19.566C19.0312 20.6205 18.408 20.883 17.5222 20.3865L12.6937 16.8285L10.3642 19.0695C10.1062 19.3275 9.89099 19.5428 9.39374 19.5428L9.74099 14.6258L18.6892 6.54C19.0785 6.1935 18.6045 6.00075 18.0847 6.348L7.02224 13.314L2.25974 11.823C1.22399 11.4998 1.20524 10.7873 2.47574 10.29L21.1035 3.11325C21.966 2.79 22.7205 3.30525 22.4392 4.623V4.62225Z"/>
</symbol>

<symbol id="vk" width="30" height="30" viewBox="0 0 24 24" fill="currentColor">
<path fill-rule="evenodd" clip-rule="evenodd" d="M23.45 5.948C23.616 5.402 23.45 5 22.655 5H20.03C19.362 5 19.054 5.347 18.887 5.73C18.887 5.73 17.552 8.926 15.661 11.002C15.049 11.604 14.771 11.795 14.437 11.795C14.27 11.795 14.019 11.604 14.019 11.057V5.948C14.019 5.292 13.835 5 13.279 5H9.151C8.734 5 8.483 5.304 8.483 5.593C8.483 6.214 9.429 6.358 9.526 8.106V11.904C9.526 12.737 9.373 12.888 9.039 12.888C8.149 12.888 5.984 9.677 4.699 6.003C4.45 5.288 4.198 5 3.527 5H0.9C0.15 5 0 5.347 0 5.73C0 6.412 0.89 9.8 4.145 14.281C6.315 17.341 9.37 19 12.153 19C13.822 19 14.028 18.632 14.028 17.997V15.684C14.028 14.947 14.186 14.8 14.715 14.8C15.105 14.8 15.772 14.992 17.33 16.467C19.11 18.216 19.403 19 20.405 19H23.03C23.78 19 24.156 18.632 23.94 17.904C23.702 17.18 22.852 16.129 21.725 14.882C21.113 14.172 20.195 13.407 19.916 13.024C19.527 12.533 19.638 12.314 19.916 11.877C19.916 11.877 23.116 7.451 23.449 5.948H23.45Z"/>
</symbol>

</svg>
